X:1
T:Title
L:1/8
M:12/8
K:Bb
V:1 treble nm="Grand Piano"
V:1
 z6 z2[Q:1/4=140] D D2 C | B,3 D3 G3- G2 A | F6- F2 F A2 G | F3 A3 F3- F2 E | D6- D2 D D2 E | %5
 E3 D3 C3- C2 E | G6- G2 A A2 ^F | D3 C2 D C3- C2 B, | B,6- B,2 B B2 d | G6- G2 A A2 c | %10
 F6- F2 G G2 B | G3 B3 A3- A2 G | ^F6- F2 D D2 C | E6- E2 E E2 D | ^F6- F2 A A2 G | %15
 ^F3 G3 A3- A2 B | A3- A2 D B6 | A3- A2 D A6 | G3- G2 G B2 G A2 G | F2 E D2 _D =D3- D2 E | %20
 D3- D2 D d6 | c3- c2 D c6 | B3- B2 B G2 A ^F2 G | =E2 ^F G2 A F3- F2 A | G6- G2 z z3 |] %25

